svgs/sharp-light/house-building.svg

<svg xmlns="http://www.w3.org/2000/svg" viewBox="0 0 640 512"><!--! Font Awesome Pro 6.6.0 by @fontawesome - https://fontawesome.com License - https://fontawesome.com/license (Commercial License) Copyright 2024 Fonticons, Inc. --><path d="M288 32l320 0 0 448-192 0 0 32 192 0 32 0 0-32 0-448 0-32L608 0 288 0 256 0l0 32 0 75.7 32 26.7L288 32zm50 144l14 0 64 0 16 0 0-16 0-64 0-16-16 0-64 0-16 0 0 16 0 64 0 14.3 2 1.7zm142 32l-16 0 0 16 0 64 0 16 16 0 64 0 16 0 0-16 0-64 0-16-16 0-64 0zm48 64l-32 0 0-32 32 0 0 32zm-64 64l0 16 0 64 0 16 16 0 64 0 16 0 0-16 0-64 0-16-16 0-64 0-16 0zm64 32l0 32-32 0 0-32 32 0zM368 144l0-32 32 0 0 32-32 0zm96-64l0 16 0 64 0 16 16 0 64 0 16 0 0-16 0-64 0-16-16 0-64 0-16 0zm32 32l32 0 0 32-32 0 0-32zM32 271L192 137.7 352 271l0 209L32 480l0-209zM0 256L0 480l0 32 32 0 320 0 32 0 0-32 0-224L192 96 0 256zm160 32l64 0 0 64-64 0 0-64zm0-32l-32 0 0 32 0 64 0 32 32 0 64 0 32 0 0-32 0-64 0-32-32 0-64 0z"/></svg>

<svg xmlns="http://www.w3.org/2000/svg" viewBox="0 0 640 512"><!--! Font Awesome Pro 6.4.0 by @fontawesome - https://fontawesome.com License - https://fontawesome.com/license (Commercial License) Copyright 2023 Fonticons, Inc. --><path d="M288 32H608V480H416v32H608h32V480 32 0H608 288 256V32v75.7l32 26.7V32zm50 144h14 64 16V160 96 80H416 352 336V96v64 14.3l2 1.7zm142 32H464v16 64 16h16 64 16V288 224 208H544 480zm48 64H496V240h32v32zm-64 64v16 64 16h16 64 16V416 352 336H544 480 464zm64 32v32H496V368h32zM368 144V112h32v32H368zm96-64V96v64 16h16 64 16V160 96 80H544 480 464zm32 32h32v32H496V112zM32 271L192 137.7 352 271V480H32V271zM0 256V480v32H32 352h32V480 256L192 96 0 256zm160 32h64v64H160V288zm0-32H128v32 64 32h32 64 32V352 288 256H224 160z"/></svg>
